public/favicon.svg

<svg width="192" height="192" viewBox="0 0 192 192" fill="none" xmlns="http://www.w3.org/2000/svg">
<rect width="192" height="192" fill="#15A1BF"/>
<path fill-rule="evenodd" clip-rule="evenodd" d="M46.3145 80.0947C56.2923 37.432 89.1601 26.257 135.198 34.2585C135.888 34.3622 136.572 34.4849 137.253 34.6273C104.845 15.5141 62.6538 22.5234 38.129 52.9033C31.5761 61.0186 26.8876 70.0639 24 79.5033C32.7427 74.7921 40.285 74.6083 46.3145 80.0947ZM80.0229 124.828C68.5536 118.438 53.1681 93.8699 67.8543 66.4616C82.8373 38.4994 116.809 34.3669 127.857 35.361C118.487 35.361 90.5475 45.0879 84.2189 70.2959C81.5093 81.0888 82.1209 98.2722 83.1 107.787C83.6553 113.183 82.5405 121.562 80.0229 124.828ZM112.677 66.0355C154.357 97.7042 122.188 160.899 64.2252 157.21C61.4038 157.398 58.6494 157.292 55.9632 156.889C102.001 164.891 134.52 153.851 144.753 111.421C145.413 106.552 145.666 101.309 145.514 95.6953C145.361 90.0805 144.046 83.7261 141.567 76.6344C138.792 68.69 135.407 63.1882 132.335 60.6752C128.347 57.413 117.855 55.1383 112.677 66.0355ZM111.977 67.1717C123.447 73.5621 138.833 98.1301 124.146 125.539C109.163 153.501 75.192 157.633 64.1423 156.64C73.5135 156.64 101.452 146.912 107.782 121.704C110.491 110.912 109.879 93.7279 108.9 84.2131C108.345 78.8166 109.46 70.4379 111.977 67.1717ZM56.8025 157.741C102.84 165.743 135.708 154.568 145.686 111.905C151.715 117.392 159.257 117.208 168 112.497C165.113 121.936 160.424 130.981 153.872 139.096C129.346 169.477 87.1559 176.486 54.747 157.373C55.428 157.515 56.1129 157.638 56.8025 157.741ZM127.775 34.7896C69.8125 31.1007 37.6427 94.2959 79.3235 125.965C74.1453 136.862 63.6531 134.587 59.6648 131.324C56.5924 128.812 53.2081 123.31 50.4328 115.366C47.9548 108.274 46.6389 101.92 46.4866 96.3048C46.3343 90.6904 46.5871 85.4486 47.2465 80.5798C57.4795 38.1491 89.9994 27.1089 136.037 35.1104C133.35 34.7081 130.596 34.6013 127.775 34.7896Z" fill="white"/>
</svg>

<svg xmlns="http://www.w3.org/2000/svg" width="192" height="192" fill="none"><path fill="#7C8386" d="M0 0h192v192H0z"/><path fill="#fff" fill-rule="evenodd" d="M46.315 80.095c9.977-42.663 42.845-53.838 88.883-45.837.69.104 1.374.227 2.055.37-32.408-19.114-74.6-12.105-99.124 18.275A79.088 79.088 0 0 0 24 79.503c8.743-4.71 16.285-4.895 22.315.592Zm33.708 44.733c-11.47-6.39-26.855-30.958-12.169-58.366 14.983-27.963 48.955-32.095 60.003-31.101-9.37 0-37.31 9.727-43.638 34.935-2.71 10.793-2.098 27.976-1.119 37.491.555 5.396-.56 13.775-3.077 17.041Zm32.654-58.793c41.68 31.67 9.511 94.864-48.452 91.175a38.355 38.355 0 0 1-8.262-.321c46.038 8.002 78.557-3.038 88.79-45.468.66-4.869.913-10.112.761-15.726-.153-5.614-1.468-11.969-3.947-19.06-2.775-7.945-6.16-13.447-9.232-15.96-3.988-3.262-14.48-5.537-19.658 5.36Zm-.7 1.137c11.47 6.39 26.856 30.958 12.169 58.367-14.983 27.962-48.954 32.094-60.004 31.101 9.371 0 37.31-9.728 43.64-34.936 2.709-10.792 2.097-27.976 1.118-37.49-.555-5.397.56-13.776 3.077-17.042ZM56.802 157.74c46.038 8.002 78.906-3.173 88.884-45.836 6.029 5.487 13.571 5.303 22.314.592a79.087 79.087 0 0 1-14.128 26.599c-24.526 30.381-66.716 37.39-99.125 18.277.681.142 1.366.265 2.056.368ZM127.775 34.79c-57.963-3.69-90.132 59.506-48.452 91.175-5.178 10.897-15.67 8.622-19.658 5.359-3.073-2.512-6.457-8.014-9.232-15.958-2.478-7.092-3.794-13.446-3.946-19.061-.153-5.615.1-10.856.76-15.725 10.233-42.43 42.752-53.471 88.79-45.47a38.384 38.384 0 0 0-8.262-.32Z" clip-rule="evenodd"/></svg>
